!!!!SEGMENT: pl-cz--iii-50--007_brykner-jerzy--vesperae-laetatus-sum.krn
!!!cenid: 17xx:849
!!!COM: Brykner, Jerzy
!!!COM-rismID: pe30025739
!!!CDT: 1705-1760
!!!CNT: Polish
!!!OPR: Vesperae
!!!OTL: Laetatus sum
!!!OMV: 007
!!!PDT:
!!!AGN: Sacred; Vespers
!!!SMS-siglum: PL-CZ
!!!SMS-shelfmark: III-50
!!!SMS-shelfwork: 001-007 M
!!!SMS-variant:
!!!SMS-altvar:
!!!NIFC-rismSourceID: 300033583
!!!NIFC-rismChildID: 300033583
!!!NIFC-islandoraID: pl-cz:38729
!!!URL-pdf-islandora: https://repozytorium.nifc.pl/islandora/object/pl-cz%3A38729/datastream/PDF/view
!!!URL-scan: https://polish.musicsources.pl/pl/lokalizacje/galeria/rekopisy/6940/1 @EN{Scan on Polish Music Sources Website} @PL{Skany w portalu Dziedzictwo Muzyki Polskiej w otwartym dostępie}
!!!ONB-nifc: UWAGA: części Vesperae: Dixit Dominus, Confitebor, Beatus vir,
!!!AIN: 3 empty 1 organ 2 violn 1 vox
!!!key:
**kern	**fba	**kern	**kern	**kern	**text	**kern	**text	**kern	**kern
*part7	*part7	*part6	*part5	*part4	*part4	*part3	*part3	*part2	*part1
*staff7	*staff7	*staff6	*staff5	*staff4	*staff4	*staff3	*staff3	*staff2	*staff1
*Iorgan	*	*Ivioln	*Ivioln	*Iempty	*	*Ivox	*	*Iempty	*Iempty
*I"Organo.	*	*I"Violini Secundo.	*I"Violini Primo.	*I"Baſso.	*	*I"Canto.	*	*I"Clarino2do	*I"Clarino 1mo
*I'Org.	*	*I'Vn II	*I'Vn I	*I'B.	*	*I'C.	*	*	*
*clefF4	*	*clefG2	*clefG2	*clefF4	*	*clefC1	*	*	*
*k[b-]	*	*k[b-]	*k[b-]	*k[b-]	*	*k[b-]	*	*	*
*F:	*	*F:	*F:	*F:	*	*F:	*	*	*
*M4/4	*	*M4/4	*M4/4	*M4/4	*	*M4/4	*	*	*
*met(c)	*	*met(c)	*met(c)	*met(c)	*	*met(c)	*	*	*
!	!	!LO:TX:a:t=problem&colon;niezidentyfikowany tekst "Fus/Tus"?	!	!	!	!	!	!	!
!LO:TX:rj:b:t=Laetatus.	!	!LO:TX:rj:b:t=Laetatus sum.	!LO:TX:rj:b:t=Laetatus.	!LO:TX:b:t=Laetatus.	!	!	!	!	!
8r	.	8r	8r	8r	.	8cc\	Lae-	8ryy	8ryy
=1	=1	=1	=1	=1	=1	=1	=1	=1	=1
!LO:TX:a:t=Solo.	!	!	!	!LO:TX:a:t=2.	!	!	!	!	!
8F\L	.	2r	2r	0r	.	8.a\	-ta-	1ryy	1ryy
8C\	.	.	.	.	.	.	.	.	.
.	.	.	.	.	.	16a\	-tus	.	.
8G\	.	.	.	.	.	8b-\	Sum	.	.
8C\J	.	.	.	.	.	16a\LL	in	.	.
.	.	.	.	.	.	16b-\JJ	.	.	.
8A\L	6	8r	8r	.	.	8cc\	his	.	.
8F\J	.	16a/LL	16a/LL	.	.	8cc\	quae	.	.
!	!	!LO:SIC:s:=:v:b-	!	!	!	!	!	!	!
.	.	16a/JJ	16b-/JJ	.	.	.	.	.	.
!	!	!LO:SIC:o:s:=:v:all\right globalglobal	!	!	!	!	!	!	!
4r	.	8cc\L	8cc\L	.	.	8a\	dic-	.	.
.	.	8dd\J	8dd\J	.	.	16ff\	-ta	.	.
.	.	.	.	.	.	16ff\	sunt	.	.
=2	=2	=2	=2	=2	=2	=2	=2	=2	=2
!LO:TX:a:t=1.	!	!	!	!	!	!	!	!	!
1r	.	8cc/L	8cc\L	.	.	8ee\	mi-	1ryy	1ryy
.	.	8b-/	8b-\	.	.	16dd,\	-hi	.	.
.	.	.	.	.	.	16dd\	in	.	.
.	.	8a/	8a\	.	.	8cc\	do-	.	.
.	.	8f/J	8f\J	.	.	16b-\LL	-mum	.	.
.	.	.	.	.	.	16a\JJ	.	.	.
.	.	8b-/L	8b-/L	.	.	8dd\	Do-	.	.
.	.	8a/	8a/	.	.	16cc\	-mi-	.	.
.	.	.	.	.	.	16cc\	-ni	.	.
.	.	8g/	8g/	.	.	8.b-\	i-	.	.
.	.	8c/J	8c/J	.	.	.	.	.	.
.	.	.	.	.	.	16b-\	-bi-	.	.
=3	=3	=3	=3	=3	=3	=3	=3	=3	=3
!LO:TX:a:t=Tutti.	!	!LO:TX:a:t=P:problem=mixed beam	!LO:TX:a:t=P:problem=mixed beam	!	!	!	!	!	!
8r	.	8f/L	8f/L	8r	.	8a\	-mus	1ryy	1ryy
!	!	!	!	!	!	!LO:LB:g=original	!	!	!
4F\	.	16ff\L	16aa\L	4F\	Stan-	4cc\	Stan-	.	.
.	.	16ff\JJ	16aa\JJ	.	.	.	.	.	.
.	.	16ff\LL	16aa\LL	.	.	.	.	.	.
.	.	16ff\	16aa\	.	.	.	.	.	.
8F\	.	16ff\	16aa\	8F\	-tes	8cc\	-te	.	.
.	.	16ff\JJ	16aa\JJ	.	.	.	.	.	.
!LO:TX:a:t=P:problem=mixed beam	!	!	!	!	!	!	!	!	!
8F\L	.	16ff\LL	16aa\LL	8F\	e-	8cc\	e-	.	.
.	.	16cc\	16ff\	.	.	.	.	.	.
8FF/J	.	16a\	16cc\	8F\	-rant	8a\	-rant	.	.
.	.	16cc\JJ	16a\JJ	.	.	.	.	.	.
!	!	!	!LO:TX:a:t=P:problem=mixed beam	!	!	!	!	!	!
8r	.	16f/LL	16f/LL	8r	.	8r	.	.	.
.	.	16g/	16ff\	.	.	.	.	.	.
*	*	*	*	*	*	*	*ij	*	*
16F\LL	.	16a/	16ff\	16F\LL	Stan-	[<8ff\	Stan-	.	.
16G\JJ	.	16b-/JJ	16ff\JJ	16G\JJ	.	.	.	.	.
!	!	!	!LO:LB:g=original	!	!	!	!	!	!
=4	=4	=4	=4	=4	=4	=4	=4	=4	=4
8A\L	6	8cc\L	16ff\LL	8A\	.	8ff\]	.	1ryy	1ryy
.	.	.	16ff\	.	.	.	.	.	.
8B-\J	.	8dd\J	16ff\	8B-\	-tes	8dd\	-tes	.	.
.	.	.	16ff\JJ	.	.	.	.	.	.
8G\L	6 5_	8b-/L	16ee\LL	8G\	e-	8dd\	e-	.	.
.	.	.	16ee\	.	.	.	.	.	.
16E\L	.	16g/L	16ee\	16E\LL	-rant	8dd,\	-rant	.	.
16F\JJ	.	16a/JJ	16ee\JJ	16F\JJ	.	.	.	.	.
*	*	*	*	*	*	*	*Xij	*	*
8G\L	.	8b-/L	16ee\LL	8G\	pe-	8dd\	pe-	.	.
.	.	.	16ee\	.	.	.	.	.	.
8A\J	.	8cc/J	16ee\	8A\	-des	8cc\	-des	.	.
.	.	.	16ee\JJ	.	.	.	.	.	.
8F\L	6 5	8a/L	16dd\LL	8F\	noſ-	8cc\	noſ-	.	.
.	.	.	16dd\	.	.	.	.	.	.
16D\L	.	16f/L	16dd\	16D\	-tri	16cc\	-tri	.	.
16E\JJ	.	16g/JJ	16dd\JJ	16E\	in	16cc\	in	.	.
=5	=5	=5	=5	=5	=5	=5	=5	=5	=5
8F\L	6 5	8a/L	16dd\LL	8F\	a-	8dd\	a-	1ryy	1ryy
.	.	.	16dd\	.	.	.	.	.	.
8G\	.	8b-/J	16dd\	16G\	-tri-	16b-\	-tri-	.	.
.	.	.	16dd\JJ	16G\	-is	16b-\	-is	.	.
*	*	*custos:g	*	*	*	*	*	*	*
!	!	!LO:LB:g=original	!	!	!	!	!	!	!
8E\	6 5	8g/L	16cc\LL	8E\	tu-	8b-\	tu-	.	.
.	.	.	16cc\	.	.	.	.	.	.
8F\J	.	8a/J	16ff\	16F\	-is	16a\	-is	.	.
.	.	.	16ff\JJ	16F\	Je-	16a\	Je-	.	.
!	!	!	!	!LO:LB:g=original	!	!	!	!	!
2C/	6 4	4f/	16ff\LL	4.C/	-ru-	(32a\LLL	-ru-	.	.
.	.	.	.	.	.	32g\JJ	.	.	.
.	.	.	16a\	.	.	8.f\J)	.	.	.
.	.	.	16ff\	.	.	.	.	.	.
.	.	.	16a\JJ	.	.	.	.	.	.
!	!	!	!LO:TX:a:t=P:problem=mixed beam	!	!	!	!	!	!
.	5 3	4g/	8g/L	.	.	8.g/	.	.	.
.	.	.	8ee\J	8C/	-sa-	.	.	.	.
.	.	.	.	.	.	16f/	-sa-	.	.
=6	=6	=6	=6	=6	=6	=6	=6	=6	=6
!LO:TX:a:t=Solo.	!	!	!	!	!	!	!	!	!
!LO:TX:a:t=P:problem=mixed beam	!	!	!LO:TX:a:t=P:problem=mixed beam	!	!	!	!	!	!
8FF/L	.	8f/L	8ff\L	8FF/	-lem	4f/	-lem.	1ryy	1ryy
*	*	*	*	*	*ij	*	*	*	*
8F\	.	8a/	8f/	8F\	Je-	.	.	.	.
8G\	7	8b-/	8f/	8G\	-ru-	4r	.	.	.
8C/J	7	8g/J	8e\J	8C/	-sa-	.	.	.	.
!LO:LB:g=original	!	!	!	!	!	!	!	!	!
8F\L	.	8a/L	8f/	8F,\	-lem	2r	.	.	.
*	*	*	*	*	*Xij	*	*	*	*
8A\	.	8a/	4ff\	16A\	quae	.	.	.	.
.	.	.	.	16A\	ae-	.	.	.	.
8B-\	.	8g/	.	8B-\	-di-	.	.	.	.
8c\J	.	8g/J	8ee\	8c\	-fi-	.	.	.	.
=7	=7	=7	=7	=7	=7	=7	=7	=7	=7
!	!	!	!	!	!	!LO:TX:a:t=2.	!	!	!
8A\L	.	8f/L	16ff\LL	8A\	-ca-	0r	.	1ryy	1ryy
.	.	.	16ee\	.	.	.	.	.	.
8B-\J	.	8f/	16dd\	16B-\	-t(ur)	.	.	.	.
.	.	.	16cc\JJ	16A\	ut	.	.	.	.
4G\	7	8f/	4b-\	8.G\	ci-	.	.	.	.
.	6	8e/J	.	.	.	.	.	.	.
.	.	.	.	16G\	-vi-	.	.	.	.
!	!	!LO:TX:a:t=P:problem=mixed beam	!	!	!	!	!	!	!
4F\	.	8f/L	16a/LL	4F\	-tas	.	.	.	.
.	.	.	16b-/	.	.	.	.	.	.
.	.	8cc\J	16cc/	.	.	.	.	.	.
.	.	.	16a/JJ	.	.	.	.	.	.
!	!	!	!LO:TX:a:t=P:problem=mixed beam	!	!	!	!	!	!
4A\	.	16a/LL	8f/L	8A\	cu-	.	.	.	.
.	.	16b-/	.	.	.	.	.	.	.
.	.	16cc/	8aa\J	16A\	-(ius)	.	.	.	.
.	.	16a/JJ	.	16A\	par-	.	.	.	.
!	!	!	!LO:TX:rj:b:t=Volti Subito.	!	!	!	!	!	!
!	!	!	!LO:PB:g=original	!	!	!	!	!	!
=8	=8	=8	=8	=8	=8	=8	=8	=8	=8
!	!	!LO:TX:a:t=P:problem=mixed beam	!	!	!	!	!	!	!
8D\L	.	8f/L	16ff\LL	8D\	-ti-	.	.	1ryy	1ryy
.	.	.	16gg\	.	.	.	.	.	.
8F\	.	8dd\J	16aa\	8F\	-ci-	.	.	.	.
.	.	.	16ff\JJ	.	.	.	.	.	.
8G\	n	8bn\L	8dd\L	8G\	-pa-	.	.	.	.
8C\J	.	16cc\L	16ee\L	16C/	-ti-	.	.	.	.
.	.	16dd\JJ	16ff\JJ	16C/	-o	.	.	.	.
8E\L	6	8ee\L	8gg\L	8E\	e-	.	.	.	.
8F\J	.	8cc\	8aa\J	8F\	-jus	.	.	.	.
!	!	!	!	!LO:LB:g=original	!	!	!	!	!
8BBn/L	6 5	8g\	16gg\LL	8BBn/	in	.	.	.	.
.	.	.	16ee\	.	.	.	.	.	.
8C/J	.	8cc\J	16ff\	8C/	id-	.	.	.	.
.	.	.	16dd\JJ	.	.	.	.	.	.
!	!	!	!	!	!	!LO:LB:g=original	!	!	!
=9	=9	=9	=9	=9	=9	=9	=9	=9	=9
2GG/	6 4	4cc\	(32ee\LLL	2GG/	-ip-	8g\	Il-	1ryy	1ryy
.	.	.	32dd\JJ	.	.	.	.	.	.
.	.	.	8.cc\J)	.	.	.	.	.	.
.	.	.	.	.	.	8g\	-luc	.	.
.	5 n	4bn/	4dd\	.	.	8g\	e-	.	.
.	.	.	.	.	.	8g\	-nim	.	.
8C/L	.	4cc\	4ccT\	4C/	-sum.	8g\	as-	.	.
8BB-X/J	7 5	.	.	.	.	16a\LL	-cen-	.	.
.	8 6	.	.	.	.	16b-\JJ	.	.	.
!LO:TX:a:t=P:problem=mixed beam	!	!	!	!	!	!	!	!	!
8AA/L	.	4r	4r	4r	.	8cc\	-de-	.	.
8A\J	.	.	.	.	.	8cc\	-runt	.	.
=10	=10	=10	=10	=10	=10	=10	=10	=10	=10
!LO:TX:a:t=P:problem=mixed beam	!	!	!	!	!	!	!	!	!
8F#X\L	6 5	0r	0r	4r	.	8cc\	tri-	1ryy	1ryy
8D\	.	.	.	.	.	16b-\LL	-bus	.	.
.	.	.	.	.	.	16a\JJ	.	.	.
*	*	*	*	*	*	*	*ij	*	*
8G\	.	.	.	8r	.	8b-\	tri-	.	.
8BB-/J	.	.	.	16G\	Qui-	16a\LL	-bus	.	.
.	.	.	.	16G\	-a	16g\JJ	.	.	.
*	*	*	*	*	*	*	*Xij	*	*
!LO:TX:a:t=P:problem=mixed beam	!	!	!	!	!	!	!	!	!
8C/L	6 5	.	.	8G\	il-	8.a\	Do-	.	.
8D/	x #	.	.	16F#X\	-lic	.	.	.	.
.	.	.	.	16F#\	se-	16g\	-mi-	.	.
8GG/	.	.	.	8.B-\	-de-	8g\	-ni,	.	.
8G\J	.	.	.	.	.	16b-\	tes-	.	.
.	.	.	.	16A\	-ru(n)t	16b-\	-ti-	.	.
=11	=11	=11	=11	=11	=11	=11	=11	=11	=11
4C/	-	.	.	16G\	se-	16ee-X\	-mo-	1ryy	1ryy
.	.	.	.	16G\	-des	16ff\	-ni-	.	.
.	.	.	.	16c\	in	16ee-\LL	-um	.	.
.	.	.	.	16B-\	ju-	16dd\JJ	.	.	.
4F\	.	.	.	8A\	-di-	16cc\	Is-	.	.
.	.	.	.	.	.	16cc\	-ra-	.	.
.	.	.	.	16A\	-ci-	16cc\	-ël	.	.
.	.	.	.	16A\	-o	16ff\	ad	.	.
8G\L	.	.	.	8G\	se-	8b-\	con-	.	.
*	*	*	*	*	*	*custos:ee-	*	*	*
!	!	!	!	!	!	!LO:LB:g=original	!	!	!
8E-X\	6	.	.	8G\	-des	16ee-X\LL	-fi-	.	.
.	.	.	.	.	.	16dd\JJ	.	.	.
8F\	.	.	.	8F\	su-	8cc\	-ten-	.	.
8D\J	6	.	.	8F\	-per	8b-\	-dum	.	.
!LO:LB:g=original	!	!	!	!	!	!	!	!	!
=12	=12	=12	=12	=12	=12	=12	=12	=12	=12
!	!	!	!	!LO:SIC:s:o:=:v:laska oraz belka	!	!	!	!	!
8E-X\L	.	2r	2r	8G\L	do-	8a\	No-	1ryy	1ryy
8C\J	.	.	.	16F\L	-mu(m)	16b-\LL	-men	.	.
.	.	.	.	16E-X\JJ	.	16g\JJ	.	.	.
4F\	.	.	.	4F\	Da-	8.a\	Do-	.	.
.	.	.	.	.	.	16b-\	-mi-	.	.
!	!	!	!	!LO:LB:g=original	!	!	!	!	!
4BB-/	.	8r	8r	8BB-/	-vid	8b-\	-ni.	.	.
.	.	8dd/L	8bb-\L	8BB-/	Ro-	8dd\	Ro-	.	.
!LO:TX:a:t=T&colon;	!	!	!	!	!	!	!	!	!
8F\L	.	8cc/	8aa\	8F\	-ga-	8cc\	-ga-	.	.
8F\J	.	8g/J	8ff\J	8F\	-te	8ff\	-te	.	.
!	!	!LO:LB:g=original	!	!	!	!	!	!	!
=13	=13	=13	=13	=13	=13	=13	=13	=13	=13
8G\L	-6	8b-\L	8bb-\L	8G\	quae	8ee-X\L	quae	1ryy	1ryy
8A\	.	8cc\	16aa\L	8A\	ad	16dd\L	ad	.	.
.	.	.	16gg\JJ	.	.	16cc\JJ	.	.	.
8B-\	.	8dd\	8ff\L	8B-\	pa-	8dd\	pa-	.	.
8A\J	.	8cc\J	8ff\J	8A\	-ce(m)	8cc\	-ce(m)	.	.
8B-\L	.	8dd\L	8ff\L	8B-\	sunt	8dd\	Sunt	.	.
8A\J	.	8cc\J	8ff\	8A\	Je-	16cc\LL	Je-	.	.
.	.	.	.	.	.	16dd\JJ	.	.	.
4G\	7	4b-/	8ff\	8.G\	-ru-	8.b-\	-ru-	.	.
.	6\	.	8ee\J	.	.	.	.	.	.
.	.	.	.	16G\	-sa-	16b-\	-sa-	.	.
=14	=14	=14	=14	=14	=14	=14	=14	=14	=14
4F\	9 7	8a\L	8ff\L	8F\	-lem,	8a\	-lem,	1ryy	1ryy
.	.	8ff\J	8aa\J	8D\	et	8ff\	et	.	.
4G\	8 6	8ff\L	8aa\L	8G\	a-	8ff\	a-	.	.
.	7 5	16ee\L	16gg\L	8G\	-bun-	16ee\LL	-bun-	.	.
.	.	16dd\JJ	16ff\JJ	.	.	16dd\JJ	.	.	.
*	*	*	*	*	*	*custos:cc#	*	*	*
!	!	!	!	!	!	!LO:LB:g=original	!	!	!
8A\L	x #	8cc#X\L	8ee\L	8A\	-dan-	8cc#X\	-dan-	.	.
8F\	x 6	16dd\L	16aa\L	16F\	-ti-	16a\	-ti-	.	.
.	.	16b-\JJ	16ff\JJ	16F\	-a	16a\	-a	.	.
8B-\	.	8f/L	8dd\L	8B-\	di-	8dd\L	di-	.	.
8G\J	x 6	16b-/L	16gg\L	8G\	-li-	8ee\J	-li-	.	.
.	.	16g/JJ	16ee\JJ	.	.	.	.	.	.
!	!	!	!LO:LB:g=original	!	!	!	!	!	!
=15	=15	=15	=15	=15	=15	=15	=15	=15	=15
!	!	!	!LO:TX:a:t=P:problem=mixed beam	!	!	!	!	!	!
8A\L	#	8e/L	8cc#X\L	8A\L	-gen-	(8cc#X\	-gen-	1ryy	1ryy
8F\J	.	8f/J	8dd\	8D\J	.	4dd\)	.	.	.
4AA/	4	4e/	8e/	8AA/	.	.	.	.	.
.	#	.	8cc#\J	16AA/	-ti-	16cc#\	-ti-	.	.
.	.	.	.	16AA/	-b(us)	16cc#\	-bus	.	.
!LO:TX:a:t=S&colon;	!	!	!	!	!	!	!	!	!
4D\	.	4d/	4dd\	4D\	te,	8dd\	te	.	.
.	.	.	.	.	.	4dd\	fi-	.	.
4F#X\	6	4r	4r	8r	.	.	.	.	.
.	.	.	.	8A\	et	16ccn\LL	-at	.	.
.	.	.	.	.	.	16dd\JJ	.	.	.
!	!	!	!	!LO:LB:g=original	!	!	!	!	!
=16	=16	=16	=16	=16	=16	=16	=16	=16	=16
8G\L	.	00r	00r	8B-\	a-	8b-\	pax	1ryy	1ryy
8E\	6	.	.	8G\	-bun-	4cc\	in	.	.
8C\	.	.	.	16E\	-dan-	.	.	.	.
.	.	.	.	16E\	-ti-	.	.	.	.
8E\J	.	.	.	16G\	-a	8b-\	vir-	.	.
.	.	.	.	16G\	in	.	.	.	.
8F\L	.	.	.	8A\	tur-	16a\LL	-tu-	.	.
.	.	.	.	.	.	16bn\JJ	.	.	.
8E\J	.	.	.	16G\	-ri-	8cc\	-te	.	.
.	.	.	.	16G\	-b(us)	.	.	.	.
4D\	7	.	.	4F\	tu-	8cc\L	tu-	.	.
.	6\	.	.	.	.	8b\J	.	.	.
=17	=17	=17	=17	=17	=17	=17	=17	=17	=17
4.C/	.	.	.	4E\	-is	4cc\	-a.	1ryy	1ryy
.	.	.	.	(16c\LL	pro-	(16ee\LL	Pro-	.	.
.	.	.	.	16Bn\JJ)	.	16dd\JJ)	.	.	.
8E\	.	.	.	(16c\LL	-pter	(16ee\LL	-pter	.	.
.	.	.	.	16d\JJ)	.	16ff\JJ)	.	.	.
4G\	n	.	.	(16Bn\LL	fra-	(16dd\LL	fra-	.	.
.	.	.	.	16A\JJ)	.	16cc\JJ)	.	.	.
.	.	.	.	(16B\LL	-tres	(16dd\LL	-tres	.	.
.	.	.	.	16c\JJ)	.	16ee\JJ)	.	.	.
8A\L	7	.	.	16A\LL	me-	16cc\LL	me-	.	.
.	.	.	.	16G\	.	16bn\	.	.	.
8D\J	7 #	.	.	16A\	.	16cc\	.	.	.
.	.	.	.	16Bn\JJ	.	16dd\JJ	.	.	.
*custos:G	*	*	*	*	*	*	*	*	*
!LO:LB:g=original	!	!	!	!	!	!LO:LB:g=original	!	!	!
=18	=18	=18	=18	=18	=18	=18	=18	=18	=18
4G\	n	.	.	4G\	-os	8bn\	-os,	1ryy	1ryy
.	.	.	.	.	.	8b\	et	.	.
4Fn\	3	.	.	4r	.	8cc\	pro-	.	.
.	4	.	.	.	.	16dd\	-xi-	.	.
.	.	.	.	.	.	16dd\	-mos	.	.
8E\L	6	.	.	8r	.	8ee\	me-	.	.
8C\	.	.	.	8E\	lo-	8ee\	-os,	.	.
8D\	.	.	.	8F\	-que-	8r	.	.	.
8E\J	.	.	.	8G\	-bar	8ee\	lo-	.	.
=19	=19	=19	=19	=19	=19	=19	=19	=19	=19
8F\L	7	.	.	16A\LL	pa-	4ee\	-que-	1ryy	1ryy
.	.	.	.	16G\J	.	.	.	.	.
8E\	.	.	.	[8A\J	.	.	.	.	.
!	!	!	!	!LO:LB:g=original	!	!	!	!	!
8F\	6	.	.	16A\LL]	.	4dd\	-bar	.	.
.	.	.	.	16c\	.	.	.	.	.
8D\J	.	.	.	16Bn\	.	.	.	.	.
.	.	.	.	16A\JJ	.	.	.	.	.
8E\L	7 #	.	.	8G#X\	.	8dd\	pa-	.	.
8A\J	.	.	.	8A\	-cem	16cc\LL	-cem	.	.
.	.	.	.	.	.	16dd\JJ	.	.	.
4E\	4	.	.	4E\	de	4bn\	de	.	.
.	#	.	.	.	.	.	.	.	.
=20	=20	=20	=20	=20	=20	=20	=20	=20	=20
4AA/	.	8r	8r	8AA/	te	8a\	te.	1ryy	1ryy
.	.	8cc\	8aa\L	16A\	p(ro)-	16cc\	p(ro)-	.	.
.	.	.	.	16A\	-pter	16cc\	-pter	.	.
4E\	4	8bn\L	8aa\	8E\	do-	8bn\	do-	.	.
.	n	16ee\L	8gg\J	8E\	-mu(m)	8ee\	-mu(m)	.	.
.	.	16dd\JJ	.	.	.	.	.	.	.
!LO:TX:a:t=T.	!	!	!	!	!	!	!	!	!
8A\L	.	8cc\L	16ff\LL	8A\	Do-	8ee\	Do-	.	.
.	.	.	16ee\	.	.	.	.	.	.
8Bn\J	.	8dd\J	16ff\	16Bn\	-mi-	16dd\	-mi-	.	.
.	.	.	16gg\JJ	16B\	-ni	16dd\	-ni	.	.
4c\	.	8g\L	16ee\LL	8c\	De-	8dd\	De-	.	.
.	.	.	16ff\	.	.	.	.	.	.
.	.	8cc\J	16gg\	8C/	-i	8cc\	-i	.	.
.	.	.	16aa\JJ	.	.	.	.	.	.
=21	=21	=21	=21	=21	=21	=21	=21	=21	=21
4G\	n	8bn/L	8dd\L	8G\	nos-	8bn\	noſ-	1ryy	1ryy
.	.	8g/J	8dd\J	8G\	-tri	16g\	-tri	.	.
.	.	.	.	.	.	16g\	quae	.	.
!	!	!	!	!	!	!LO:LB:g=original	!	!	!
8r	.	16cc\LL	16r	8r	.	16cc\LL	si-	.	.
.	.	16dd\	16ee\LL	.	.	16dd\JJ	.	.	.
8C/	.	16cc\	16ff\	8C/	quae-	16cc\LL	-vi	.	.
.	.	16b-X\JJ	16gg\JJ	.	.	16b-X\JJ	.	.	.
16F\LL	.	4.a/	16aa\LL	16F\LL	-si-	4.a\	bo-	.	.
16G\	.	.	16bb-X\	16G\JJ	.	.	.	.	.
16F\	.	.	16aa\	16F\LL	-vi	.	.	.	.
16E\JJ	.	.	16gg\JJ	16E\JJ	.	.	.	.	.
8D/L	-6	.	8ff\L	8D/	bo-	.	.	.	.
8BB-/J	.	8b-/	16ee\L	8BB-/	-na	8b-\	-na	.	.
.	.	.	16dd\JJ	.	.	.	.	.	.
!	!	!LO:LB:g=original	!	!	!	!	!	!	!
=22	=22	=22	=22	=22	=22	=22	=22	=22	=22
4C/	.	4g/	4ee\	4C/	ti-	4g/	ti-	1ryy	1ryy
*	*	*	*	*custos:FF	*	*	*	*	*
!	!	!	!	!LO:LB:g=original	!	!	!	!	!
!LO:TX:a:t=P:problem=mixed beam	!	!	!	!	!	!	!	!	!
8FF/L	.	4a/	4ff\	8FF/	-bi.	4f/	-bi.	.	.
!LO:TX:a:t=S&colon;	!	!	!	!	!	!	!	!	!
8F\	.	.	.	4F\	Glo-	.	.	.	.
8D\	6	2r	2r	.	.	4r	.	.	.
8E\J	.	.	.	16G\	-ri-	.	.	.	.
.	.	.	.	16G\	-a	.	.	.	.
8F\L	.	.	.	8A\	Pa-	8r	.	.	.
8C\J	.	.	.	16E,\	-tri,	16g\	Si-	.	.
.	.	.	.	16E\	et	16g\	-cut	.	.
=23	=23	=23	=23	=23	=23	=23	=23	=23	=23
4FF/	.	1r	1r	8.F\	Fi-	16a\	e-	1ryy	1ryy
.	.	.	.	.	.	16a\	-rat	.	.
.	.	.	.	.	.	16a\	in	.	.
.	.	.	.	16F\	-li-	16a\	prin-	.	.
8C/L	.	.	.	8C/	-o,	16g\	-ci-	.	.
.	.	.	.	.	.	16g\	-pi-	.	.
8AA/J	.	.	.	16F\	et	16a\	-o,	.	.
.	.	.	.	16E\	Spi-	16g\	et	.	.
*custos:D	*	*	*	*	*	*	*	*	*
!LO:LB:g=original	!	!	!	!	!	!	!	!	!
4D\	.	.	.	8D\	-ri-	8f/	nu(n)c,	.	.
.	.	.	.	16D\	-tu-	16dd\LL	et	.	.
.	.	.	.	16D\	-i	16cc\JJ	.	.	.
4G\	n	.	.	8r	.	8bn\	Se(m)-	.	.
*	*	*	*	*	*ij	*	*	*	*
.	.	.	.	16G\	et	16g\	-per,	.	.
*	*	*	*	*	*	*	*ij	*	*
.	.	.	.	16F\	Spi-	16g\	et	.	.
=24	=24	=24	=24	=24	=24	=24	=24	=24	=24
8E\L	6	2r	2r	8E\	-ri-	(4cc\	Se(m)-	1ryy	1ryy
8F\J	.	.	.	16A\	-tu-	.	.	.	.
.	.	.	.	16A,\	-i	.	.	.	.
*	*	*	*	*	*Xij	*	*	*	*
!	!	!	!	!LO:TX:a:t=P:problem=mixed beam	!	!	!	!	!
4G\	n	.	.	8G\L	San-	4bn\)	.	.	.
.	.	.	.	8GG/J	.	.	.	.	.
8C\L	.	8r	8r	8C/	-cto,	8cc\	-per	.	.
*	*	*	*	*	*	*	*Xij	*	*
8F\	.	8a\L	8ff\	16F\	et	16cc\	et	.	.
.	.	.	.	16F\	in	16cc\	in	.	.
*	*	*	*	*custos	*	*custos:dd	*	*	*
!	!	!	!	!LO:LB:g=original	!	!LO:LB:g=original	!	!	!
!LO:TX:a:t=T.	!	!	!	!	!	!	!	!	!
8B-X\	.	8dd\	8dd\L	8B-\	Sae-	8dd\	Sae-	.	.
8G\J	.	8dd\J	16ee\L	16G\	-cu-	16dd\	-cu-	.	.
.	.	.	16ff\JJ	16G\	-la	16dd\	-la	.	.
!	!	!	!LO:LB:g=original	!	!	!	!	!	!
=25	=25	=25	=25	=25	=25	=25	=25	=25	=25
8c\L	.	8ee\L	8gg\L	8c\	Sae-	8ee\	Sae-	1ryy	1ryy
8B-\	.	8ee\J	16aa\L	8B-\	-cu-	8ee\	-cu-	.	.
.	.	.	16bb-\JJ	.	.	.	.	.	.
8A\	6 5	16ff\LL	16ccc\LL	8A\	-lo-	8ff\	-lo-	.	.
.	.	16gg\	16bb-\	.	.	.	.	.	.
8F\J	.	16ff\	16aa\	8F,\	-rum	8ff\	-rum	.	.
.	.	16ee\JJ	16gg\JJ	.	.	.	.	.	.
*	*	*	*	*	*ij	*	*ij	*	*
8B-\L	.	8dd\L	8ff\L	8B-\	Sae-	8dd\	Sae-	.	.
8A\	.	8dd\J	16gg\L	8A\	-cu-	8dd\	-cu-	.	.
.	.	.	16aa\JJ	.	.	.	.	.	.
8G\	6 5	16ee\LL	16bb-\LL	8G\	-lo-	8ee\	-lo-	.	.
.	.	16ff\	16aa\	.	.	.	.	.	.
8E\J	.	16ee\	16gg\	8E\	-rum	8dd\	-rum	.	.
.	.	16dd\JJ	16bb-\JJ	.	.	.	.	.	.
*	*	*	*	*	*Xij	*	*Xij	*	*
=26	=26	=26	=26	=26	=26	=26	=26	=26	=26
8A\L	.	16cc\LL	16aa\LL	8A\L	a-	4.cc\	a-	1ryy	1ryy
.	.	16a\	16bb-\	.	.	.	.	.	.
8F\	.	16b-\	16aa\	8F\	.	.	.	.	.
.	.	16cc\JJ	16gg\JJ	.	.	.	.	.	.
8D\	7	8f/L	16ff\LL	8D\	.	.	.	.	.
.	.	.	16dd\	.	.	.	.	.	.
8G\J	.	8b-/J	16ee\	8G\J	.	8b-\	-me(n)	.	.
.	.	.	16ff\JJ	.	.	.	.	.	.
*	*	*	*	*	*	*	*ij	*	*
4E\	6 5	4b-/	4gg\	4E\	.	8b-\L	a-	.	.
.	.	.	.	.	.	8g\J	.	.	.
4F\	.	4a/	[4ff\	4F\	-men	8a\L	-me(n)	.	.
.	.	.	.	.	.	8f\J	.	.	.
*	*	*	*	*	*	*	*Xij	*	*
=27	=27	=27	=27	=27	=27	=27	=27	=27	=27
2C/	4	2g/	4ff\]	2C/	a-	2g/	a-	1ryy	1ryy
.	3	.	4ee\	.	.	.	.	.	.
*	*	*	*2\right	*	*	*	*	*	*
2FF/	.	2a/	2ff\	2FF/	-men.	2f/	-men.	.	.
==	==	==	==	==	==	==	==	==	==
*-	*-	*-	*-	*-	*-	*-	*-	*-	*-
!!!system-decoration: [s1,s2][(s3,s4)][(s5,s6)],s7
!!!RDF**kern: < = below
!!!EED: Leszek Kubiak
!!!EEV: 2020-12-30
!!!ENC: Marcin Jachim
!!!END: 2020-06-25
!!!YEC: Copyright 2022 Narodowy Instytut Fryderyka Chopina (https://polishscores.org)
!!!YEM: License CC-BY-4.0 (https://creativecommons.org/licenses/by/4.0)
